X: 36758
T: Shelder Geo
R: reel
M: 4/4
K: Aminor
c|:A2 AG EGAB|[e2c2] [ec]A cGGc|A2 AG EGAG|1 Addc d2 dc:|2 Addc d2 de||
cdeg a2 g2|ecgc ecgc|cdeg a2 g2|^fdad fdad|
cdeg a2 g2|ecgc ecce|a^fge fde^c|Add^c d4||

